T: Rose Amang The Heather, The
M: 4/4
L: 1/8
K: Dmaj
|: f2 f>e d2 d>B | A>FA<d c<e e2 ||: D2 (3FED F2 A>d | B2 (3Bcd c<e e2 |2 B2 (3dcB A<d (3fga | g>fe>a f<d d2 ||
